X: 11
M:4/4
L:1/8
K:D
faag/2f/2 gbba/2g/2|faef d/2e/2f/2d/2 "tr"BA|
faag/2f/2 gbbc'|d'c'ba b2 ba|faag/2f/2 gbba/2g/2|
faef d/2e/2f/2d/2 Bd|A>BAF ABde|faef d2 d2||

